X:159
T:score24
L:1/8
Q:1/4=96
M:2/4
I:linebreak $
K:D
 (Ae ef | ed df | gb d'b | ba a2) | (bc cb |$ ad df) | (fe) (fe) | (ed d2) |] %8
